!!!OTL: 138. Die Erscheinung in der Brautnacht. / [Geisterstimme.]
!!!ARE: Europa, Mitteleuropa, Deutschland, Thueringen; Hessen; Niederrhein
!!!SCT: B0138
!!!TXL: @@DE
!!!YEM: Copyright 1995, estate of Helmut Schaffrath.
**kern	**text
*ICvox	*
*Ivox	*
*M4/4	*
*met(c)	*
*clefG2	*
*k[f#]	*
*G:	*
!LO:TX:a:t=Im Sprechton.	!
{8d	Heinrich
8d	.
=1	=1
4.g	ſchlief
8d	bei
8g	ſei-
8g	-ner
8b/	Neu-
8g	-ver-
=2	=2
8gL	-mähl-
8f#J	.
4f#	-ten,
4r}	.
{8f#	ei-
8g	-ner
=3	=3
4.a	rei-
8b	-chen
8cc	Gräfin
8a	.
8f#	an
8d	dem
=4	=4
2b	Rhein;
4r}	.
{8g	Schlan-
8g	-gen-
=5	=5
4.ee	-biſ-
8dd	-ſe,
8cc	die
8b	den
8a	Fal-
8g	-ſchen
=6	=6
8f#L	quäl-
8aJ	.
4dd	-ten,
4r}	.
{8a	lie-
8cc	-ßen
=7	=7
8b	ihn
8dd	nicht
8g	ru-
8b/	-hig
(8aL	ſchla-
8ee	.
8ddJ)	.
8f#	-fen
=8	=8
(4a	ein.
4g)	.
4r}	.
==	==
!!!AGN: Ballade, Romanze
!!!GTL: Balladen und Romanzen
!!!ONB: ESAC (Essen Associative Code) Database: BOEHME
!!!AMT: simple quadruple
!!!AIN: vox
!!!EED: Helmut Schaffrath
!!!EEV: 1.0
!!Alte Weiſe aus Tbüringen, Heſſen, Naſſau u. vom Niederrbein.
!!@@COMMENT:"Gedicht von J. Fr. Aug. Katʒner. [...] Hier der Text nach mündlicher Ueberlieferung, sowie ihn das Volk zurecht gesungen und
!!gebesert hat: aus Thürngen (1830) auo Hesens asau (1880), aus HessdensDarmsadt und dem
!!Bergischen litt I. 4, sm. 64.
!!Die Romanze oder Gespensergeschichte, vom Volke am Rhein bis in die Gegenwart (noch
!!1890 in Schwalbach und 1892 in der Wetterau gesungen, hat Erlach bezeichnet als: Alte Weise
!!aus den liebesabenteuerlicen Henri quattro. Das aber eine französische Duelle der Dictung zu
!!Grunde liege, is nict erwiesen."
!!@@END:
!!Text: J. Fr. Aug. Katʒner
!!!URL-scan: https://archive.org/details/BoehmeVtLieder1895/page/n139/mode/2up
!!!ENC: Anna Maria Matuszewska
!!!EEV: 2024/18/06
*-	*-
